X:34
T:Bill Cheatum
M:2/4
L:1/16
Z: Jason R. Fruit <Jason R. Fruit@big-mac>
R: breakdown
K:A
E2 | EFAB c2c2 | cBAc BAFD | DFAc d2de | fedf edcA |
EFAB c2cB | ABcA BAFA | dcde fgaf | edcB A2 :|
|: af | ecea fedf | eceg abaf | ecea fedf | ecAc BGEG |
Acea fece | fefg aefg | agae faed | cABc A2 :|

